X: 8
T: The Keel Row
R: strathspey
M: 4/4
L: 1/8
K: Gmaj
|: d>c |B2 G>B c2 A>c | B2 G>B A>F D2 |\
B2 G>B c2 A>c | B>GA>F G2 :|
|: B<d |B>dB>d e2 d>c | B2 A>G B>G D2 |\
B>dB>d e2 d>c | B2 A2 G2 :|


Tune 3637	Setting 16645

